dist/svgs/unicons/line/object-group.svg

<svg xmlns="http://www.w3.org/2000/svg" viewBox="0 0 24 24"><path d="M16 10h-2V8a1 1 0 00-1-1H8a1 1 0 00-1 1v5a1 1 0 001 1h2v2a1 1 0 001 1h5a1 1 0 001-1v-5a1 1 0 00-1-1zm-6 1v1H9V9h3v1h-1a1 1 0 00-1 1zm5 4h-3v-3h3zm6 3.28V5.72A2 2 0 1018.28 3H5.72A2 2 0 103 5.72v12.56A2 2 0 105.72 21h12.56A2 2 0 1021 18.28zm-2 0a1.91 1.91 0 00-.72.72H5.72a1.91 1.91 0 00-.72-.72V5.72A1.91 1.91 0 005.72 5h12.56a1.91 1.91 0 00.72.72z"/></svg>

<svg xmlns="http://www.w3.org/2000/svg" viewBox="0 0 24 24"><path d="M16,10H14V8a1,1,0,0,0-1-1H8A1,1,0,0,0,7,8v5a1,1,0,0,0,1,1h2v2a1,1,0,0,0,1,1h5a1,1,0,0,0,1-1V11A1,1,0,0,0,16,10Zm-6,1v1H9V9h3v1H11A1,1,0,0,0,10,11Zm5,4H12V12h3Zm6,3.28V5.72A2,2,0,1,0,18.28,3H5.72A2,2,0,1,0,3,5.72V18.28A2,2,0,1,0,5.72,21H18.28A2,2,0,1,0,21,18.28Zm-2,0a1.91,1.91,0,0,0-.72.72H5.72A1.91,1.91,0,0,0,5,18.28V5.72A1.91,1.91,0,0,0,5.72,5H18.28a1.91,1.91,0,0,0,.72.72Z"/></svg>
